build/flags/Panama.svg

<svg xmlns="http://www.w3.org/2000/svg" fill="none" viewBox="0 0 28 28" focusable="false"><defs><filter id="Panama_svg__a"><feColorMatrix values="0 0 0 0 1 0 0 0 0 1 0 0 0 0 1 0 0 0 1 0"/></filter></defs><mask id="Panama_svg__b" width="28" height="20" x="0" y="4" maskUnits="userSpaceOnUse"><g filter="url(#Panama_svg__a)"><rect width="28" height="20" y="4" fill="#FFF" rx="3"/><rect width="27.5" height="19.5" x=".25" y="4.25" stroke="#F5F5F5" stroke-width=".5" rx="2.75"/></g></mask><path fill="none" d="M0 0H28V28H0z"/><rect width="28" height="20" y="4" fill="#FFF" rx="3"/><rect width="27.5" height="19.5" x=".25" y="4.25" stroke="#D6D8DD" stroke-width=".5" rx="2.75"/><g mask="url(#Panama_svg__b)"><path fill="#E52448" fill-rule="evenodd" d="M28 13.3333L13.3333 13.3333L13.3333 4L28 4L28 13.3333Z"/><path d="M28 13.3333L13.3333 13.3333L13.3333 4L28 4L28 13.3333Z"/><path fill="#1367AE" fill-rule="evenodd" d="M13.3333 24L0 24L0 13.3334L13.3333 13.3334L13.3333 24Z"/><path d="M13.3333 24L0 24L0 13.3334L13.3333 13.3334L13.3333 24Z"/><path fill="#1367AE" fill-rule="evenodd" d="M6.66667 9.76L5.09924 10.824L5.62684 9.00453L4.13052 7.84262L6.02402 7.78214L6.66667 6L7.30931 7.78214L9.20282 7.84262L7.70649 9.00453L8.23409 10.824L6.66667 9.76Z"/><path d="M5.09924 10.824L5.62684 9.00453L4.13052 7.84262L6.02402 7.78214L6.66667 6L7.30931 7.78214L9.20282 7.84262L7.70649 9.00453L8.23409 10.824L6.66667 9.76L5.09924 10.824Z"/><path fill="#E52448" fill-rule="evenodd" d="M20.6667 19.76L19.0992 20.824L19.6268 19.0045L18.1305 17.8426L20.024 17.7821L20.6667 16L21.3093 17.7821L23.2028 17.8426L21.7065 19.0045L22.2341 20.824L20.6667 19.76Z"/><path d="M19.0992 20.824L19.6268 19.0045L18.1305 17.8426L20.024 17.7821L20.6667 16L21.3093 17.7821L23.2028 17.8426L21.7065 19.0045L22.2341 20.824L20.6667 19.76L19.0992 20.824Z"/></g></svg>

<svg xmlns="http://www.w3.org/2000/svg" fill="none" viewBox="0 0 28 28" focusable="false"><path fill="none" d="M0 0h28v28H0z"/><rect width="28" height="20" y="4" fill="#FFF" rx="3"/><rect width="27.5" height="19.5" x=".25" y="4.25" stroke="#D6D8DD" stroke-width=".5" rx="3"/><mask id="Panama_svg__a" width="28" height="20" x="0" y="4" mask-type="alpha" maskUnits="userSpaceOnUse"><rect width="28" height="20" y="4" fill="#FFF" rx="3"/><rect width="27.5" height="19.5" x=".25" y="4.25" stroke="#F5F5F5" stroke-width=".5" rx="3"/></mask><g mask="url(#Panama_svg__a)"><mask id="Panama_svg__b" fill="#fff"><path fill-rule="evenodd" d="M28 13.333H13.333V4H28z" clip-rule="evenodd"/></mask><path fill="#E52448" fill-rule="evenodd" d="M28 13.333H13.333V4H28z" clip-rule="evenodd" mask="url(#Panama_svg__b)"/></g><g mask="url(#Panama_svg__a)"><mask id="Panama_svg__c" fill="#fff"><path fill-rule="evenodd" d="M13.333 24H0V13.333h13.333z" clip-rule="evenodd"/></mask><path fill="#1367AE" fill-rule="evenodd" d="M13.333 24H0V13.333h13.333z" clip-rule="evenodd" mask="url(#Panama_svg__c)"/></g><g mask="url(#Panama_svg__a)"><path fill="#1367AE" fill-rule="evenodd" d="m6.66 9.75-1.57 1.07L5.62 9 4.13 7.84l1.89-.06L6.66 6l.64 1.78 1.9.06L7.7 9l.53 1.82z"/><path d="M5.09 10.82 5.62 9 4.13 7.84l1.89-.06L6.66 6l.64 1.78 1.9.06L7.7 9l.53 1.82-1.57-1.07z"/></g><g mask="url(#Panama_svg__a)"><path fill="#E52448" fill-rule="evenodd" d="m20.66 19.76-1.57 1.06.53-1.82-1.49-1.16 1.89-.06.64-1.78.64 1.78 1.9.06L21.7 19l.53 1.82z"/><path d="m19.09 20.82.53-1.82-1.49-1.16 1.89-.06.64-1.78.64 1.78 1.9.06L21.7 19l.53 1.82-1.57-1.06z"/></g></svg>
